!!!COM: Felix Mendelssohn
!!!CNT: Deutsch
!!!TXO: Deutsch
!!!OTL: Fru2hlingslied
!!!LYR: Ulrich von Lichtenstein
!!!OPS: Op. 19
!!!ONM: No. 1
!!!ENC: Daniel Alt & Leigh VanHandel
!!!YOR: Sa2mmtliche Lieder fu2r eine Singstimme 
!!!YOR: Neu revidirt von Dr. L. Benda, Ausgabe fu2r mittlere Stimme
!!!YOR: Braunschweig. Henry Litolff's Verlag. Boston and New York: Arthur P. Schmidt.
!!!ODT: 1830/
**kern	**silbe
*staff1	*
=1-	=1
*clefG2	*
*k[]	*
*M2/4	*
2r	.
=2	=2
2r	.
=3	=3
{8g	{In
8g	dem
8g	Wal-
8g	-de
=4	=4
8cc	su2-
16ee	sse
16dd	|
8cc	To2-
8b	-ne
=5	=5
8.dd	sin-
16g	-gen
8g	klei-
8cc	-ne
=6	=6
8.dd	Vo2-
16g	-ge-
8g}	-lein,}
8r	.
=7	=7
{8g	{auf
8g	der
8g	Au-
8g	-e
=8	=8
8cc	Blu-
16ee	-men,
16dd	|
8cc	scho2-
8b	-ne,
=9	=9
8cc	blu2-
8b	-hen
8a	gen
8a-	des
=10	=10
8a	Mai-
8g	-en
8f#	Schein,
8e}	|}
=11	=11
{8d	{blu2-
8e	-hen
[4d	gen
=12	=12
8d]	|
8e	des
[4d	Mai-
=13	=13
8d]	|
16e	|
16f#	|
8gn	|
16b	|
16a	|
=14	=14
[4g	|
16g]	|
16f#	|
16e	-en
16f#	|
=15	=15
4g}	Schein.}
4r	.
=16	=16
2r	.
=17	=17
4r	.
{8g	{Al-
8g	-so
=18	=18
8g	blu2ht
8a	mein
8.cc	ho-
16b-	-her
=19	=19
4a	Muth
8a	im
8b	Ge-
=20	=20
8cc	dan-
8cc	-ken
8.dd	ih-
16cc	-rer
=21	=21
16cc	Gu2-
16b	|
16a	-te,
16g}	|}
{8cc	{die
8cc	mir
=22	=22
8dd	reich
8cc	macht
8cc	mein
8cc	Ge-
=23	=23
8dd	-mu2-
8cc}	-the,}
8r	.
{16b	{wie
16a	der
=24	=24
[2g	Traum
=25	=25
8g]	|
8ee	|
8dd	|
8cc	dem
=26	=26
8cc	Ar-
4g	|
16a	-men
16f	|
=27	=27
8e}	thut,}
8r	.
{8cc	{wie
8a-	der
=28	=28
[2a	Traum
=29	=29
8a]	|
8b	|
8cc	|
16ee	dem
16dd	|
=30	=30
[4cc	Ar-
16cc]	|
16b	|
16a	-men
16b	|
=31	=31
4cc}	thut.}
4r	.
==	==
*-	*-